!!! OTL: Berkowitz628
!!! Chapter: 1
!!! Section: V
!!! Page: 160
!!! Mode: 
!!! Encoder: AR
**kern
*staff1
=1-
!!pagebreak:original
*clefC4
*k[]
*C:
*M4/4
2F#/
4C/
4B\
=2
4.G/
8A-\
2BB-/
=3
4BB-/
4D-/
4E-/
4dn\
=4
2En/
4r
4A\
=5
4A\
4F/
4B\
4G/
=6
2c\
2D/
=7
!!linebreak:original
2.e-\
4E-/
=8
2G-/
2AA-/
=9
2.Gn/
4r
=10
1F#
=11
!!linebreak:original
2C/
2B\
=12
1G
=13
1A-
=14
[1BB-
=15
2BB-/]
2r
==
*-
